X: 10411
T: NEW SPEED THE PLOUGH
C:
%R: reel
B: Elias Howe "The Musician's Companion" Part 1 1842 p.41 #1
S: http://imslp.org/wiki/The_Musician's_Companion_(Howe,_Elias)
Z: 2015 John Chambers <jc:trillian.mit.edu>
N: First/last note lengths aren't correct; not fixed.
M: C|
L: 1/8
K: A
% - - - - - - - - - - - - - - - - - - - - - - - - -
A |\
ABcd efec | (ea)ec (eg)ec | dfdB cecA | BEBA (GABc) | ABcd efec | (ea)ec (eg)ec |
(de)(cd) (Bc)(AB) | EAGB A2A2 :: e2 | a2(ga) aece | (aA)(gA) (fA)(eA) | dfdB cecA | BEBA GABc |
ccee (aA)(eA) | fdBd ecAc |[1 dfdB cecA | EAGB A2A2 :|[2 decd BcAB | EABG A2B2 :| 
% - - - - - - - - - - - - - - - - - - - - - - - - -
